X: 106
T:Merry Conceit
M:6/8
L:1/8
S:Playford
K:Gm
B>AG A>Bc| d>cB f2 c| fcd cAc| d>cA B3|B>AG A>Bc| d>cB f2 c| fcd cAc|d>c A B2:|
|: Acf A>GF| A c2 f2 A| BGB d>cB| fga b3| bbB d>=e^f| g2 d B>AG AcG F>=ED |A3 G3:|

